build/assets/images/proyectos/logos/logo-educo.svg

<svg width="200" height="200" viewBox="0 0 200 200" fill="none" xmlns="http://www.w3.org/2000/svg">
<rect width="200" height="200" fill="white"/>
<path d="M134.348 103.995C130.249 103.995 126.149 104.035 122.05 103.995C121.095 103.995 120.259 104.194 119.463 104.751C116.04 107.139 112.617 109.488 109.194 111.836C108.239 112.473 107.244 113.189 106.09 112.632C104.975 112.075 105.174 110.841 105.134 109.806C104.935 106.104 105.214 102.403 104.896 98.7413C104.816 97.6269 104.458 96.791 103.741 95.9552C94.3483 84.8109 96.4975 67.3383 108.318 58.9801C111.662 56.592 115.443 55.199 119.622 55.199C128.537 55.1592 137.493 55.0398 146.408 55.199C156.995 55.398 166.746 64.7512 167.861 75.2985C168.657 82.7811 167.502 89.6667 162.647 95.597C158.348 100.891 152.657 103.756 145.811 103.955C142.03 104.075 138.209 103.995 134.348 103.995ZM147.881 73.3482C147.522 72.0348 146.687 71.199 145.493 70.6418C144.537 70.1642 143.861 70.3234 143.025 71.0796C136.935 76.5323 129.294 76.4527 123.005 70.9602C121.93 70.0447 120.179 70.3234 119.104 71.7562C118.308 72.8308 117.711 73.8258 119.184 75.1393C124.478 79.796 124.478 87.2786 119.184 91.9751C117.592 93.3682 118.388 94.4428 119.264 95.4776C120.458 96.9104 122.01 97.0696 123.124 96.0348C129.015 90.6617 137.134 90.6617 142.985 96.0348C144.099 97.0696 145.572 96.8706 146.846 95.5174C147.96 94.3632 147.96 93.4477 146.647 92.2537C140.796 86.9602 140.955 79.7164 146.965 74.6617C147.363 74.2239 147.92 73.985 147.881 73.3482ZM133.194 71.7164C136.816 71.6766 139.721 69.0099 139.761 65.7065C139.761 62.3234 136.776 59.6567 132.995 59.6965C129.453 59.7363 126.348 62.5622 126.388 65.7065C126.388 69.0099 129.493 71.7562 133.194 71.7164Z" fill="black"/>
<path d="M38.4279 131.338C35.1244 131.338 31.8209 131.418 28.5175 131.299C26.7264 131.259 26.8856 131.856 27.602 133.05C30.3085 137.508 36.4777 139.1 40.9752 136.433C41.4926 136.114 41.9304 135.756 42.4478 135.438C43.9602 134.522 45.8309 134.801 46.7065 136.075C47.6219 137.388 47.2637 139.1 45.8707 140.294C41.0946 144.313 32.9354 144.672 27.4826 141.169C21.1543 137.07 18.6866 129.866 21.2737 123.06C23.7413 116.532 30.9055 112.393 37.9901 113.428C45.7115 114.542 50.5672 119.279 51.7612 126.801C52.2389 129.906 51.0846 131.299 47.9802 131.299C44.7563 131.338 41.612 131.338 38.4279 131.338ZM45.1543 125.488C43.7612 121.707 40.418 119.199 36.5573 119.08C32.5772 118.96 29.3931 120.592 27.3234 124.134C26.9254 124.811 26.5672 125.488 27.9205 125.488C33.612 125.488 39.3035 125.488 45.1543 125.488Z" fill="black"/>
<path d="M79.6617 116.532C79.6617 114.025 79.6617 111.876 79.6617 109.726C79.6617 107.935 80.7762 107.1 82.408 106.9C84 106.701 85.5921 107.896 85.6319 109.448C85.6319 116.572 86.3881 123.776 85.3931 130.821C83.7214 142.443 69.3931 147.697 60.1592 140.453C54.9453 136.353 52.8757 129.985 54.8259 124.055C56.7364 118.085 62.3483 113.866 68.7563 113.468C72.5772 113.189 76.1194 114.104 79.6617 116.532ZM69.9105 137.786C75.2438 137.786 79.6617 133.488 79.6219 128.353C79.5821 123.418 75.0448 119.159 69.8309 119.119C64.5374 119.119 60.1592 123.418 60.199 128.592C60.2388 133.766 64.5374 137.826 69.9105 137.786Z" fill="black"/>
<path d="M163.761 113.348C172.557 113.308 179.522 119.876 179.642 128.353C179.761 136.592 172.716 143.637 164.199 143.677C155.164 143.716 148.04 137.189 148 128.831C147.96 119.955 154.647 113.388 163.761 113.348ZM163.721 137.706C169.055 137.706 173.393 133.607 173.393 128.512C173.393 123.458 169.015 119.159 163.801 119.119C158.667 119.08 154.09 123.458 154.05 128.393C154.05 133.448 158.468 137.706 163.721 137.706Z" fill="black"/>
<path d="M117.632 128.552C117.632 132.373 117.632 136.234 117.632 140.055C117.632 141.647 117.234 143 115.562 143.478C114.01 143.955 112.657 143.478 111.901 141.965C111.304 140.771 110.746 141.607 110.189 141.886C103.383 145.308 95.4627 143.557 91.005 137.627C89.015 135 88.2189 131.975 88.1791 128.711C88.1393 124.891 88.1393 121.03 88.1791 117.209C88.1791 114.702 89.3732 113.269 91.3632 113.308C93.2737 113.348 94.3483 114.702 94.3483 117.169C94.3483 121.149 94.3085 125.09 94.3483 129.07C94.3881 134.005 97.9304 137.667 102.746 137.706C107.721 137.786 111.463 134.244 111.582 129.269C111.662 125.169 111.622 121.07 111.622 116.97C111.622 114.662 112.736 113.309 114.567 113.269C116.557 113.229 117.672 114.542 117.672 116.97C117.672 120.871 117.632 124.692 117.632 128.552Z" fill="black"/>
<path d="M136.259 113.348C139.801 113.269 143.025 114.303 145.811 116.532C147.522 117.886 147.881 119.557 146.846 120.99C145.771 122.463 143.94 122.662 142.109 121.348C139.682 119.637 137.095 118.761 134.109 119.438C130.289 120.313 127.622 122.502 126.706 126.284C125.751 130.184 126.985 133.527 130.289 135.876C133.592 138.184 137.134 138.423 140.756 136.512C141.393 136.194 141.95 135.677 142.587 135.318C144.1 134.443 145.97 134.801 146.846 136.075C147.721 137.388 147.403 139.1 146.01 140.294C141.075 144.473 132.915 144.831 127.304 141.169C121.532 137.388 118.985 130.741 120.816 124.294C122.687 117.886 128.776 113.388 135.662 113.348C135.861 113.348 136.06 113.348 136.259 113.348Z" fill="black"/>
</svg>

<svg width="200" height="200" fill="none" xmlns="http://www.w3.org/2000/svg"><path fill="#fff" d="M0 0h200v200H0z"/><path d="M134.348 103.995c-4.099 0-8.199.04-12.298 0-.955 0-1.791.199-2.587.756a1575.845 1575.845 0 01-10.269 7.085c-.955.637-1.95 1.353-3.104.796-1.115-.557-.916-1.791-.956-2.826-.199-3.702.08-7.403-.238-11.065-.08-1.114-.438-1.95-1.155-2.786-9.393-11.144-7.243-28.617 4.577-36.975 3.344-2.388 7.125-3.781 11.304-3.781 8.915-.04 17.871-.16 26.786 0 10.587.199 20.338 9.552 21.453 20.1.796 7.482-.359 14.368-5.214 20.298-4.299 5.294-9.99 8.159-16.836 8.358-3.781.12-7.602.04-11.463.04zm13.533-30.647c-.359-1.313-1.194-2.149-2.388-2.706-.956-.478-1.632-.319-2.468.438-6.09 5.452-13.731 5.373-20.02-.12-1.075-.915-2.826-.637-3.901.796-.796 1.075-1.393 2.07.08 3.383 5.294 4.657 5.294 12.14 0 16.836-1.592 1.393-.796 2.468.08 3.503 1.194 1.432 2.746 1.592 3.86.557 5.891-5.373 14.01-5.373 19.861 0 1.114 1.035 2.587.836 3.861-.518 1.114-1.154 1.114-2.07-.199-3.263-5.851-5.294-5.692-12.538.318-17.592.398-.438.955-.677.916-1.314zm-14.687-1.632c3.622-.04 6.527-2.706 6.567-6.01 0-3.383-2.985-6.05-6.766-6.01-3.542.04-6.647 2.866-6.607 6.01 0 3.304 3.105 6.05 6.806 6.01zm-94.766 59.622c-3.304 0-6.607.08-9.91-.039-1.792-.04-1.632.557-.916 1.751 2.706 4.458 8.876 6.05 13.373 3.383.518-.319.955-.677 1.473-.995 1.512-.916 3.383-.637 4.258.637.916 1.313.558 3.025-.835 4.219-4.776 4.019-12.936 4.378-18.388.875-6.329-4.099-8.796-11.303-6.21-18.109 2.468-6.528 9.633-10.667 16.717-9.632 7.721 1.114 12.577 5.851 13.771 13.373.478 3.105-.676 4.498-3.78 4.498-3.225.039-6.369.039-9.553.039zm6.726-5.85c-1.393-3.781-4.736-6.289-8.597-6.408-3.98-.12-7.164 1.512-9.234 5.054-.398.677-.756 1.354.598 1.354h17.233zm34.508-8.956v-6.806c0-1.791 1.114-2.626 2.746-2.826 1.592-.199 3.184.996 3.224 2.548 0 7.124.756 14.328-.239 21.373-1.672 11.622-16 16.876-25.234 9.632-5.214-4.1-7.283-10.468-5.333-16.398 1.91-5.97 7.522-10.189 13.93-10.587 3.821-.279 7.363.636 10.906 3.064zm-9.752 21.254c5.334 0 9.752-4.298 9.712-9.433-.04-4.935-4.577-9.194-9.791-9.234-5.294 0-9.672 4.299-9.632 9.473.04 5.174 4.338 9.234 9.712 9.194zm93.851-24.438c8.796-.04 15.761 6.528 15.881 15.005.119 8.239-6.926 15.284-15.443 15.324-9.035.039-16.159-6.488-16.199-14.846-.04-8.876 6.647-15.443 15.761-15.483zm-.04 24.358c5.334 0 9.672-4.099 9.672-9.194 0-5.054-4.378-9.353-9.592-9.393-5.134-.039-9.711 4.339-9.751 9.274 0 5.055 4.418 9.313 9.671 9.313zm-46.089-9.154v11.503c0 1.592-.398 2.945-2.07 3.423-1.552.477-2.905 0-3.661-1.513-.597-1.194-1.155-.358-1.712-.079-6.806 3.422-14.726 1.671-19.184-4.259-1.99-2.627-2.786-5.652-2.826-8.916-.04-3.82-.04-7.681 0-11.502 0-2.507 1.194-3.94 3.184-3.901 1.91.04 2.985 1.394 2.985 3.861 0 3.98-.04 7.921 0 11.901.04 4.935 3.582 8.597 8.398 8.636 4.975.08 8.717-3.462 8.836-8.437.08-4.1.04-8.199.04-12.299 0-2.308 1.114-3.661 2.945-3.701 1.99-.04 3.105 1.273 3.105 3.701 0 3.901-.04 7.722-.04 11.582zm18.627-15.204c3.542-.079 6.766.955 9.552 3.184 1.711 1.354 2.07 3.025 1.035 4.458-1.075 1.473-2.906 1.672-4.737.358-2.427-1.711-5.014-2.587-8-1.91-3.82.875-6.487 3.064-7.403 6.846-.955 3.9.279 7.243 3.583 9.592 3.303 2.308 6.845 2.547 10.467.636.637-.318 1.194-.835 1.831-1.194 1.513-.875 3.383-.517 4.259.757.875 1.313.557 3.025-.836 4.219-4.935 4.179-13.095 4.537-18.706.875-5.772-3.781-8.319-10.428-6.488-16.875 1.871-6.408 7.96-10.906 14.846-10.946h.597z" fill="#000"/></svg>
